packages/calcite-ui-icons/icons/link-chart-connect-16.svg

<?xml version="1.0" encoding="UTF-8"?><svg id="icons" xmlns="http://www.w3.org/2000/svg" viewBox="0 0 16 16"><defs><style>.cls-1{fill:none;}</style></defs><path d="M13.17603,4l-1.67603,2.05817-1.67603-2.05817h1.17603v-.5c0-.82715-.67285-1.5-1.5-1.5h-.5v-1h.5c1.37842,0,2.5,1.12109,2.5,2.5v.5h1.17603ZM7,7.5c0,.82715-.67285,1.5-1.5,1.5s-1.5-.67285-1.5-1.5c0-.15546.03052-.30249.07458-.4436l-1.74701-1.31061c-.23517.16028-.5191.25421-.82758.25421-.82715,0-1.5-.67285-1.5-1.5s.67285-1.5,1.5-1.5c.30847,0,.59241.09393.82758.25421l1.74701-1.31061c-.04407-.14111-.07458-.28815-.07458-.4436,0-.82715.67285-1.5,1.5-1.5s1.5.67285,1.5,1.5-.67285,1.5-1.5,1.5c-.30701,0-.59222-.09338-.8302-.25226l-1.75909,1.31964c.04083.13788.06927.28119.06927.43262s-.02844.29474-.06927.43262l1.75909,1.31964c.23798-.15887.52319-.25226.8302-.25226.82715,0,1.5.67285,1.5,1.5ZM5,2h1v-1h-1v1ZM6,7h-1v1h1v-1ZM15.98,14.5c0,.82715-.65285,1.5-1.48,1.5s-1.5-.67285-1.5-1.5c0-.15546.03052-.30249.07458-.4436l-1.74438-1.30865c-.23798.15887-.52319.25226-.8302.25226-.82715,0-1.5-.67285-1.5-1.5s.67285-1.5,1.5-1.5c.30701,0,.59222.09338.8302.25226l1.74438-1.30865c-.04407-.14111-.07458-.28815-.07458-.4436,0-.82715.67285-1.5,1.5-1.5s1.5.67285,1.5,1.5c0,.651-.41925,1.20081-1,1.4079v3.1842c.58075.20709.98.7569.98,1.4079ZM14,9h1v-1h-1v1ZM13.6698,13.25226c.10144-.06769.2135-.11853.3302-.16016v-3.1842c-.1167-.04163-.22876-.09247-.3302-.16016l-1.74438,1.30865c.04407.14111.07458.28815.07458.4436s-.03052.30249-.07458.4436l1.74438,1.30865ZM15,14h-1v1h1v-1Z"/><rect class="cls-1" width="16" height="16"/></svg>

<svg xmlns="http://www.w3.org/2000/svg" viewBox="0 0 16 16"><path d="M13.176 4L11.5 6.058 9.824 4H11v-.5c0-.827-.673-1.5-1.5-1.5H9V1h.5C10.878 1 12 2.121 12 3.5V4h1.176zM7 7.5C7 8.327 6.327 9 5.5 9S4 8.327 4 7.5c0-.155.03-.302.075-.444l-1.747-1.31c-.236.16-.52.254-.828.254C.673 6 0 5.327 0 4.5S.673 3 1.5 3c.308 0 .592.094.828.254l1.747-1.31A1.48 1.48 0 0 1 4 1.5C4 .673 4.673 0 5.5 0S7 .673 7 1.5 6.327 3 5.5 3a1.49 1.49 0 0 1-.83-.252l-1.76 1.32c.042.137.07.28.07.432s-.028.295-.07.433l1.76 1.32A1.502 1.502 0 0 1 7 7.5zM5 2h1V1H5v1zm1 5H5v1h1V7zm9.98 7.5c0 .827-.653 1.5-1.48 1.5s-1.5-.673-1.5-1.5c0-.155.03-.302.075-.444l-1.745-1.308A1.502 1.502 0 0 1 9 11.5a1.502 1.502 0 0 1 2.33-1.248l1.745-1.308A1.48 1.48 0 0 1 13 8.5c0-.827.673-1.5 1.5-1.5s1.5.673 1.5 1.5a1.5 1.5 0 0 1-1 1.408v3.184c.58.207.98.757.98 1.408zM14 9h1V8h-1v1zm-.33 4.252c.101-.067.213-.118.33-.16V9.908a1.497 1.497 0 0 1-.33-.16l-1.745 1.308c.044.142.075.289.075.444s-.03.302-.075.444l1.745 1.308zM15 14h-1v1h1v-1z"/><path fill="none" d="M0 0h16v16H0z"/></svg>
